X: 100346
T: AN OLD FAVOURITE MINUETTO
B: K\"ohler's Violin Repository, v.3, 1885 p.238 #2
F: http://www.archive.org/details/klersviolinrepos03rugg
Z: 2012 John Chambers <jc:trillian.mit.edu>
N: The 2nd part has a final repeat, but no initial repeat.
N: The 2nd-violin part is on the next (facing) page.
N: The 1st and 2nd violin parts have different titles.
M: 3/4
L: 1/8
Q: "Moderato"
K: C
P: Primo
uG2  |\
c4 (dc/d/) | e2(c2G2) | e4 (fe/f/) | g2(e2c2) |\
c'2(c'b)c'a | g2(ge)ge | f2(fd)fd | cBAGAB |
c2c2(e/d/c/d/) | e2c2G2 | e2e2(g/f/e/f/) | g2e2c2 |\
c'3(bag) | g3.f(fe) | (ed)dagB | (d2c2) :|
z2 |\
vG3(edc) | (cB) (uBA) (uA^G) | A3 (fed) | (dc) (ucB) (uBA) |\
f3 (agf) | (fe)(ee')d'c' | (c'b) (bag^f) |
Ha2 {fba}Hg2 (ac') | (c'b) (c'ba^g) | (a^g)(a=gfe) |\
(fe) (fedc) | cBAGAB | c2c2(e/d/c/d/) |
e2c2G2 | e2e2(g/f/e/f/) | g2e2c2 |\
c'3(bag) | g3f(fe) | (ed) da gB | (d2"^Fine."c2) :|

%%sep 2 1 500

